svgs/sharp-solid/magnifying-glass-plus.svg

<svg xmlns="http://www.w3.org/2000/svg" viewBox="0 0 512 512"><!--! Font Awesome Pro 6.6.0 by @fontawesome - https://fontawesome.com License - https://fontawesome.com/license (Commercial License) Copyright 2024 Fonticons, Inc. --><path d="M376 330.7c25.2-34.4 40-76.8 40-122.7C416 93.1 322.9 0 208 0S0 93.1 0 208S93.1 416 208 416c45.9 0 88.3-14.9 122.7-40L441.4 486.6 464 509.3 509.3 464l-22.6-22.6L376 330.7zM232 104l0 24 0 56 56 0 24 0 0 48-24 0-56 0 0 56 0 24-48 0 0-24 0-56-56 0-24 0 0-48 24 0 56 0 0-56 0-24 48 0z"/></svg>

<svg xmlns="http://www.w3.org/2000/svg" viewBox="0 0 512 512"><!--! Font Awesome Pro 6.4.0 by @fontawesome - https://fontawesome.com License - https://fontawesome.com/license (Commercial License) Copyright 2023 Fonticons, Inc. --><path d="M376 330.7c25.2-34.4 40-76.8 40-122.7C416 93.1 322.9 0 208 0S0 93.1 0 208S93.1 416 208 416c45.9 0 88.3-14.9 122.7-40L441.4 486.6 464 509.3 509.3 464l-22.6-22.6L376 330.7zM232 104v24 56h56 24v48H288 232v56 24H184V288 232H128 104V184h24 56V128 104h48z"/></svg>
